X:1
T:Amor quando fioriva
T:Amor quando fioriva
T:Jhan Gero
T:Source : Trium vocum cantiones---Nürnberg---J.Petreius---1541. Editor : André Vierendeels (27/09/16).
T:Notes : Original clefs : C3, C4, F4 Editorial accidentals above the staff Original note values have been halved 
T:©
T:©
T:©
T:©
T:©
T:©
C:Jhan Gero
Z:©
%%score [ 1 2 3 ]
L:1/8
Q:1/4=123
M:2/2
K:F
V:1 treble-8 nm="Tenor 1" snm="T 1"
V:2 treble-8 nm="Tenor 2" snm="T 2"
V:3 bass nm="Bass" snm="B"
V:1
 A3 B cd e2- | e2 f4 ed | e2 f4 ed | c2 d4 cB | A2 B3 A A2- | A2 G2 A4- | A4 z2 f2 | f2 f2 d2 d2 | %8
w: A- * * * *||mor quan- * *||do fio- * ri-|* * va,|_ mia|spem' e gui- dar-|
 g3 f edcB | A2 A2 A2 A2- | A2 G2 A4- | A4 z2 f2 | f2 f2 d2 d2 | g3 f edcB | A2 A2 A2 A2- | %15
w: don _ _ _ _ _|_ d'o- gni mia|_ fe- de,|_ tol-|ta m'e quell' ond'|at- * * * * *|ten- de'a mer- ce|
 A2 G2 A4- | A4 c4- | c4 c2 c2 | f6 f2 | g8 | e4 e4 | e2 f2 g2 f2- | f2 e2 f4 | z2 A2 A2 A2 | %24
w: _ _ de,|_ hai|_ dis- pie-|ta- ta|sor-|te, hai|cru- del vi- *|* * ta,|lu- na m'ha|
 c3 B/A/ G3 A | Bcde f3 e/d/ | cd e3 d d2- |"^#" d2 c2 d4 | z2 d2 d2 d2 | A2 A2 c3 B/A/ | G4 B4- | %31
w: post' _ _ _ _|_ _ _ _ in _ _|_ _ do- * gli-|* * a,|et mie spe-|ranz' a- cer- * *|ba- ment'|
 B2 A2 G2 F2 | B4 A4 | z2 c2 c2 c2 | d4 B4 | c4 c2 c2- | c2 c2 dcBA | G2 F4 E2 | F4 z2 f2 | %39
w: _ ha _ _|spen- te,|l'al- tra mi|tien qua|giu con- tra|_ mia _ _ _ _|vo- gli- *|a, et|
 f3 e d2 c2 | d2 e2 f2 e2 | d4 c4- | c4 z2 A2 | c2 c2 d4 | c2 A2 B4 | A2 F2 G2 c2- | c2 B2 c4 | %47
w: lei che se n'e|gi- * * *|* ta,|_ se-|guir non pos-|so ch'el- la|_ non con- sen-|* * te,|
 z2 g2 g2 g2 | e3 d c2 d2- | dc e3 d d2- |"^#" d2 c2 d4 |"^-natural" z2 c2 c2 c2 | f2 f2 e4- | %53
w: ma pur ogn'|hor pre- sen- *||* * te,|nel me- zo|del mio cor|
 e2 e2 f2 e2 | d4 c4 | f4 f2 f2 | g3 f edcB | A3 B c2 d2 | e2 f2 ed d2- |"^#" d2 c2 d4 | f4 f2 f2 | %61
w: _ ma- don- na|sie- de,|et qual e|la mia vi- * * *|* ta el- la|se'l _ _ _ ve-|* * de,|et qual e|
 g3 f edcB | A3 B c2 d2 | e2 f3 e d2- | d2 c2 d3 c | B2 A2 B4 | A8 |] %67
w: la mia vi- * * *|* ta el- la|se'l _ _ ve-|||de.|
V:2
 z4 A4- | A4 A4- | A2 A2 F2 G2 | A2 F4 E2 | F2 D4 C2 | D4 E4 | D8 | z2 A2 B2 B2 | G2 G2 cBAG | %9
w: A-|* mor|_ quan- do fio-|ri- * *|||va,|mia spem' gui-|dar- don _ _ _ _|
 F6 E2 | D2 D2 E4 | D8 | z2 A2 B2 B2 | G2 G2 cBAG | F6 E2 | D2 D2 E4 | D4 A4- | A4 A2 A2 | A6 A2 | %19
w: d'o- gni|mia fe- *|de,|tol- ta m'e|quell' ond' at- * * *|* ten-|de'a mer- ce-|de, hai|_ dis- pie-|ta- ta|
 B2 c4 B2 | c4 c4 | c2 A2 BAGF | G4 F4- | F4 z4 | E4 E2 E2 | G3 F/E/ DEFG | A4 G2 F2 | E4 D4- | %28
w: sor- * *|te, hai|cru- del vi- * * *|* ta,|_|lu- na m'ha|post' _ _ _ _ _ _|_ _ _|in do-|
 D8 | z2 A2 A2 A2 | E2 E2 G3 F/E/ | D3 C DE F2- | F2 E2 F4 | F4 z2 F2 | F2 F2 G4 | E4 F4 | %36
w: glia,|et mie spe-|ranz' a- cer- * *|ba- * * * ment'|_ ha spen-|te, l'al-|tra mi tien|qua giu|
 F2 F4 F2 | G2 A2 B4 | A8 | z2 F2 F3 E | D2 C2 FG A2- | A2 G2 A4 | E4 z4 | E4 G2 G2 | A4 G2 D2 | %45
w: con- tra mia|vo- * gli-|a,|et lei che|se n'e gi- * *|* * ta,|_|se- guir non|pos- so ch'el-|
 F4 E2 C2 | D4 C4- | C4 z2 c2 | c2 c2 A3 G | F2 G3 FED | E4 D4 | z2 A2 A2 A2 | A2 A2 c4- | %53
w: la non con-|sen- te,|_ ma|pur ogn' hor pre-|sen- * * * *|* te,|nel me- zo|del mio cor|
 c2 c2 A2 A2- | A2 G2 A4 | z2 A2 A2 A2 | B3 A G4 | F3 G A2 F2 | G2 F2 D4 | E4 D4 | z2 A2 A2 A2 | %61
w: _ ma- don- na|_ sie- de,|et qual e|la mia vi-|* * * ta|el- la se'l|ve- de,|et qual e|
 B3 A G4 | F3 G A2 F2 | G2 F2 D4 | E4 D4- | D8- | D8 |] %67
w: la mia vi-|* * * ta|el- la se'l|ve- de.|_||
V:3
 z4 A,,3 B,, | C,2 D,4 C,B,, | C,2 D,4 C,B,, | A,,2 B,,2 G,,4 | F,,2 G,,2 A,,4 | B,,4 A,,4 | %6
w: A- *||mor quan- * *|do fio- ri-||* va,|
 z2 F,2 F,2 F,2 | D,2 D,2 G,3 F, | E,D, C,4 F,2- | F,E,D,C, D,2 A,,2 | B,,4 A,,4 | z2 F,2 F,2 F,2 | %12
w: mia spem' e|gui- dar- don _|_ _ _ d'o-|* * * * gni mia|fe- de,|tol- ta m'e|
 D,2 D,2 G,3 F, | E,D, C,4 F,2- | F,E,D,C, D,2 A,,2 | B,,4 A,,4 | F,8 | F,6 F,2 | D,6 D,2 | G,,8 | %20
w: quell' ond' at- *|* * ten- de'a|_ _ _ _ _ mer-|ce- de,|hai|dis- pie-|ta- ta|sor-|
 C,4 C,4 | C,2 D,2 B,,2 D,2 | C,4 F,,4- | F,,4 z2 A,,2 | A,,2 A,,2 C,3 B,,/A,,/ | %25
w: te, hai|cru- del vi- *|* ta,|_ lu-|na m'ha post' _ _|
 G,,A,,B,,C, D,3 C,/B,,/ | A,,3 B,, C,2 D,2 | A,,4 D,4- | D,4 z2 D,2 | D,2 D,2 A,,2 A,,2 | %30
w: _ _ _ _ in _ _|_ _ _ _|do- glia,|_ et|mie spe- ranz' a-|
 C,3 B,,/A,,/ G,,2 G,,2 | B,,6 A,,2 | G,,4 F,,4 | F,,4 F,,2 F,,2 | B,,4 G,,4 | A,,4 F,,2 F,,2- | %36
w: cer- * * * ba-|ment' ha|spen- te,|l'al- tra mi|tien qua|giu con- tra|
 F,,2 F,,2 B,,4- | B,,2 A,,2 G,,4 | F,,8- | F,,4 z2 F,2 | F,2 E,2 D,2 C,2 | B,,4 A,,2 A,,2 | %42
w: _ mia vo-|* * gli-|a.|_ et|lei che se n'e|gi- ta, se-|
 C,2 C,2 D,4 | C,2 A,,2 B,,4 | A,,2 F,,2 G,,4 | F,,4 C,2 A,,2 | G,,4 z2 G,2 | G,2 G,2 E,3 D, | %48
w: guir nol pos-|so ch'el- la|non con- sen-||te, ma|pur ogn' hor pre-|
 C,4 F,3 E, | D,2 C,2 B,,4 | A,,4 z4 | F,4 F,2 F,2 | D,2 D,2 C,4 | C,4 D,2 A,,2 | B,,4 A,,4 | %55
w: sen- * *||te,|nel me- zo|del mio cor|ma- don- na|se- de,|
 D,4 D,2 D,2 | G,,2 G,,2 C,4 | F,,2 F,3 E, D,2 | C,2 D,2 B,,4 | A,,4 D,4 | D,4 D,2 D,2 | %61
w: et qual e|la mia vi-|ta, el- * *|la s'el ve-|* de,|et qual e|
 G,,2 G,,2 C,4 | F,,2 F,3 E, D,2 | C,2 D,2 B,,4 | A,,4 B,,3 A,, | G,,2 F,,2 G,,4 | D,8 |] %67
w: la mia vi-|ta, el- * *|la se'l ve-|* de, sel|ve- * *|de.|

